X:181
T:Killavil Fancy
Z: id:dc-reel-165
M:C
L:1/8
K:G Major
E|DGBG A2BA|GEE2 cEGE|DGBG A2BA|GEED EFGA|!
B3d A2BA|GEE2 cEGE|DGBG A2BA|GEED EFG|]!
A|GABd edge|dBB2 dBAB|GABd edge|dBAB G3A|!
GABd edge|dBB2 dega|bggb ageg|dBAB G3|]!